X: 102
T: Miss Caroline Grant's Strathspey
R: strathspey
B: William Shepherd "1st Collection" 1793 p.10 #2
F: http://imslp.org/wiki/File:PMLP73094-Shepherd_Collections_HMT.pdf
C: William Shepherd (17??-1812)
Z: 2012 John Chambers <jc:trillian.mit.edu>
N: The MS has just one flat in the key signature, but all e's are flatted.
M: C
L: 1/16
K: G
dc |\
B3AB3B, D3FF2dc | B3GB3F (BA).B.c BcdB |\
e2gf edcB A3F F2dc | B2G BA.G.^F G4 G2 :|
|: d2 |\
Tg3ag3B A3F ABcA | G3TBd3B g3db3g |\
f3bd3b ABcA Fedc | B3G BAG^F G4 G2 :|
